logos/compose.svg

<svg preserveAspectRatio="xMidYMid" viewBox="0 0 256 148" xmlns="http://www.w3.org/2000/svg">
  <g fill="#038DC8">
    <path d="M202.368 29.568h-.128L152.576.64l-49.024 28.544L53.248 0 0 30.976v56.32L102.784 147.2l49.152-28.416 50.432 29.184L256 116.992v-56.32l-53.632-31.104Zm-.256 57.728L160 62.848l42.496-24.832 42.112 24.704-42.496 24.576ZM102.4 37.632l42.496 24.576-41.984 24.448-42.368-24.704 41.856-24.32Zm92.416-3.84-41.6 24.192-42.368-24.576 41.728-24.32 42.24 24.704Zm-99.2-.768-8.576 4.992L52.352 57.6 11.008 33.024 53.376 8.448l42.24 24.576ZM7.424 39.168l41.6 25.088v44.288L7.424 83.2V39.168Zm49.92 29.44 41.6 24.704v44.16l-41.6-24.704v-44.16Zm98.944.512 42.368 24.96v43.776l-42.368-25.216V69.12Z"/>
    <g opacity=".5">
      <path d="m57.344 112.896 41.6 24.448V93.312l-41.6-24.704z"/>
      <path d="m7.424 83.072 41.6 25.344v-44.16l-41.6-25.088z"/>
      <path d="m156.288 112.768 42.368 25.216V94.08l-42.368-24.96z"/>
    </g>
  </g>
</svg>

<?xml version="1.0" encoding="UTF-8"?>
<svg width="256px" height="148px" viewBox="0 0 256 148" version="1.1" xmlns="http://www.w3.org/2000/svg" preserveAspectRatio="xMidYMid">
    <title>Compose</title>
    <g>
        <path d="M202.368,29.568 L202.24,29.568 L152.576,0.64 L103.552,29.184 L53.248,0 L0,30.976 L0,87.296 L102.784,147.2 L151.936,118.784 L202.368,147.968 L256,116.992 L256,60.672 L202.368,29.568 Z M202.112,87.296 L160,62.848 L202.496,38.016 L244.608,62.72 L202.112,87.296 L202.112,87.296 Z M102.4,37.632 L144.896,62.208 L102.912,86.656 L60.544,61.952 L102.4,37.632 L102.4,37.632 Z M194.816,33.792 L153.216,57.984 L110.848,33.408 L152.576,9.088 L194.816,33.792 Z M95.616,33.024 L87.04,38.016 L52.352,57.6 L11.008,33.024 L53.376,8.448 L95.616,33.024 Z M7.424,39.168 L49.024,64.256 L49.024,108.544 L7.424,83.2 L7.424,39.168 Z M57.344,68.608 L98.944,93.312 L98.944,137.472 L57.344,112.768 L57.344,68.608 Z M156.288,69.12 L198.656,94.08 L198.656,137.856 L156.288,112.64 L156.288,69.12 L156.288,69.12 Z" fill="#038DC8"></path>
        <g fill="#038DC8" opacity="0.5" transform="translate(7.424000, 39.168000)">
            <polygon points="49.92 73.728 91.52 98.176 91.52 54.144 49.92 29.44"></polygon>
            <polygon points="0 43.904 41.6 69.248 41.6 25.088 0 0"></polygon>
            <polygon points="148.864 73.6 191.232 98.816 191.232 54.912 148.864 29.952"></polygon>
        </g>
    </g>
</svg>
